web/wp-content/themes/cncf-theme/images/icon-calendar.svg

<svg height="22" viewBox="0 1 24 22" width="24" xmlns="http://www.w3.org/2000/svg"><path d="m20 19h-4v-4h4zm-6-10h-4v4h4zm6 0h-4v4h4zm-12 6h-4v4h4zm16-14v22h-24v-22zm-2 6h-20v14h20zm-8 8h-4v4h4zm-6-6h-4v4h4z"/></svg>

<svg xmlns="http://www.w3.org/2000/svg" width="24" height="22" viewBox="0 1 24 22"><path fill="#000000" d="M20 19h-4v-4h4v4zM14 9h-4v4h4V9zm6 0h-4v4h4V9zM8 15H4v4h4v-4zM24 1v22H0V1h24zm-2 6H2v14h20V7zm-8 8h-4v4h4v-4zM8 9H4v4h4V9z"/></svg>
